!!!COM: Palestrina, Giovanni Perluigi da
!!!OPR: Sine nomine (1591)
!!!OTL: Credo
**kern	**kern	**kern	**kern	**kern	**kern
*Ibass	*Itenor	*Itenor	*Icalto	*Icant	*Icant
!Bassus	!Tenor 2	!Tenor 1	!Altus	!Cantus 2	!Cantus 1
*clefF4	*clefGv2	*clefGv2	*clefG2	*clefG2	*clefG2
*k[b-]	*k[b-]	*k[b-]	*k[b-]	*k[b-]	*k[b-]
*G:dor	*G:dor	*G:dor	*G:dor	*G:dor	*G:dor
*M4/2	*M4/2	*M4/2	*M4/2	*M4/2	*M4/2
=1	=1	=1	=1	=1	=1
1D	1r	0r	0r	0r	0r
2D	1D	.	.	.	.
2D	.	.	.	.	.
=2	=2	=2	=2	=2	=2
2.F	2D	1A	0r	0r	0r
.	2D	.	.	.	.
4E	.	.	.	.	.
4D	[1F	1A	.	.	.
4C	.	.	.	.	.
[2D	.	.	.	.	.
=3	=3	=3	=3	=3	=3
2D]	2F]	1A	0r	0r	0r
4C	4E	.	.	.	.
4BB	4D	.	.	.	.
2C#	2E	2A	.	.	.
2D	2F	2A	.	.	.
=4	=4	=4	=4	=4	=4
1GG	1.G	1B-	1d	1r	0r
[1D	.	[1A	2d	1d	.
.	2F	.	2d	.	.
=5	=5	=5	=5	=5	=5
1D]	2r	1A]	2.f	2d	0a
.	2D	.	.	2d	.
.	.	.	4e	.	.
1r	2D	1r	4d	[1f	.
.	.	.	4c	.	.
.	2D	.	[2d	.	.
=6	=6	=6	=6	=6	=6
0r	1A	0r	2d]	2f]	1a
.	.	.	4c	4e	.
.	.	.	4B	4d	.
.	2A	.	2c#	2e	1a
.	2D	.	2d	2f	.
=7	=7	=7	=7	=7	=7
0r	1d	1r	1G	1g	1b-
.	1D	2r	1d	2.f	2a
.	.	[2d	.	.	2a
.	.	.	.	8e	.
.	.	.	.	8d	.
=8	=8	=8	=8	=8	=8
1r	2r	2d]	1A	1e	0a
.	1A	2c#	.	.	.
[1D	.	2d	1f	1d	.
.	2A	2d	.	.	.
=9	=9	=9	=9	=9	=9
2D]	2F	1A	2d	1r	0a
2C#	2E	.	2e	.	.
2D	1F	2.A	2d	2r	.
2D	.	.	[2d	[2a	.
.	.	4A	.	.	.
=10	=10	=10	=10	=10	=10
1AA	2.E	1A	4d]	2a]	0r
.	.	.	8c	.	.
.	.	.	8B	.	.
.	.	.	2c#	2a	.
.	4E	.	.	.	.
2BB-	2D	2r	2d	2f	.
2GG	[2G	2G	2d	2b-	.
=11	=11	=11	=11	=11	=11
1D	2G]	1A	0d	1a	1r
.	2F#	.	.	.	.
1GG	1G	2.B-	.	2g	2r
.	.	.	.	2g	[2g
.	.	4B-	.	.	.
=12	=12	=12	=12	=12	=12
0r	1D	2A	2r	1a	2g]
.	.	2A	1d	.	2f#
.	2.E-	1G	.	2r	2.g
.	.	.	2c	[2g	.
.	4E-	.	.	.	4a
=13	=13	=13	=13	=13	=13
1r	1D	2r	2.d	2g]	2b-
.	.	1d	.	2f#	2a
.	.	.	4c	.	.
[1G	1r	.	4B-	2.g	1b-
.	.	.	4A	.	.
.	.	2e-	[2B-	.	.
.	.	.	.	4a	.
=14	=14	=14	=14	=14	=14
2G]	0r	2.d	4B-]	2b-	2g
.	.	.	4G	.	.
2F#	.	.	1d	2a	2.a
.	.	4c	.	.	.
2G	.	2B-	.	2.b-	.
.	.	.	.	.	4g
2G	.	2B-	2d	.	[2g
.	.	.	.	4cc	.
=15	=15	=15	=15	=15	=15
2.D	1r	2.A	2.d	2dd	4g]
.	.	.	.	.	8f#
.	.	.	.	.	8e
.	.	.	.	2a	2f#
4D	.	4A	4d	.	.
2GG	2r	2G	2d	2b	2g
[2C	[2G	[2E	[2e	[2cc	[2g
=16	=16	=16	=16	=16	=16
2C]	2G]	2E]	2e]	2cc]	2g]
2C	2G	2C	2e	2cc	2g
2C	2E	2G	2e	2cc	2g
2C	2E	2G	2e	2cc	2g
=17	=17	=17	=17	=17	=17
2.GG	2.G	2.B-	2.d	2b-	2g
.	.	.	.	2g	2dd
4GG	4G	4B-	4d	.	.
[1D	1F	1A	2d	[1a	2dd
.	.	.	[2f	.	4d
.	.	.	.	.	4e
=18	=18	=18	=18	=18	=18
1D]	4D	1d	2f]	1a]	4f
.	4E	.	.	.	4g
.	4F	.	2f	.	2.a
.	4G	.	.	.	.
2.AA	1A	[1c	[1e	1cc	.
.	.	.	.	.	4b
.	.	.	.	.	[2cc
4BB	.	.	.	.	.
=19	=19	=19	=19	=19	=19
1C	1E	1c]	1e]	1g	2cc]
.	.	.	.	.	2g
1GG	1G	[1B-	[1d	2.dd	2.b-
.	.	.	.	4cc	4cc
=20	=20	=20	=20	=20	=20
1BB-	1F	1B-]	1d]	1b-	1dd
[1FF	2r	1c	1f	2a	2cc
.	[2F	.	.	[2a	[2cc
=21	=21	=21	=21	=21	=21
1FF]	4F]	0r	2f	4a]	4cc]
.	4F	.	.	4a	4cc
.	2F	.	2f	2a	2cc
1r	2B-	.	1f	2b-	2dd
.	2A	.	.	2cc	2cc
=22	=22	=22	=22	=22	=22
0r	2.B-	0r	1f	2.dd	2.b-
.	4F	.	.	4cc	4a
.	2G	.	1r	2b-	2g
.	2d	.	.	2a	2f#
=23	=23	=23	=23	=23	=23
2r	1G	2r	2r	1g	2g
1G	.	1B-	1d	.	1g
.	1r	.	.	1r	.
2G	.	2G	2d	.	2b-
=24	=24	=24	=24	=24	=24
2F#	0r	2A	2d	0r	2a
2G	.	2B-	2d	.	2g
1C	.	1c	1e-	.	1g
=25	=25	=25	=25	=25	=25
0D	2r	1A	1d	2r	2f#
.	1d	.	.	1f	1a
.	.	1r	2.f	.	.
.	2d	.	.	2d	2a
.	.	.	4f	.	.
=26	=26	=26	=26	=26	=26
0r	2c#	1r	2e	2e	2a
.	2d	.	2d	2f	2a
.	1G	2r	1d	1g	1b-
.	.	[2d	.	.	.
=27	=27	=27	=27	=27	=27
0r	4D	2d]	0r	1f	1.a
.	4E	.	.	.	.
.	4F	2d	.	.	.
.	4G	.	.	.	.
.	2A	2c#	.	2e	.
.	[2B-	2d	.	2d	2f
=28	=28	=28	=28	=28	=28
0r	4B-]	1G	0r	1d	2.g
.	4c	.	.	.	.
.	1d	.	.	.	.
.	.	.	.	.	4f
.	.	2A	.	1a	1e
.	2c#	2A	.	.	.
=29	=29	=29	=29	=29	=29
1BB-	2d	2D	1f	0r	1d
.	2B-	2d	.	.	.
2BB-	2B-	2d	2f	.	1r
2BB-	2B-	2d	2f	.	.
=30	=30	=30	=30	=30	=30
1F	1A	1c	1f	1r	1r
1BB-	1B-	1d	2f	2r	2r
.	.	.	2B-	2b-	2dd
=31	=31	=31	=31	=31	=31
0r	0r	0r	2.f	2.a	2.cc
.	.	.	4B-	4b-	4dd
.	.	.	2f	2a	2cc
.	.	.	2g	2g	2b-
=32	=32	=32	=32	=32	=32
2r	2r	2r	2d	4f	0a
.	.	.	.	4e	.
1D	1d	1A	1f	4d	.
.	.	.	.	4e	.
.	.	.	.	4f	.
.	.	.	.	4g	.
2D	2d	2A	2f	2a	.
=33	=33	=33	=33	=33	=33
1BB-	1d	1B-	1f	1r	0r
2F	2c	2A	2f	2r	.
2BB-	2d	2B-	2f	2f	.
=34	=34	=34	=34	=34	=34
2F	2c	2A	2f	2a	2r
2G	2B-	2G	2d	2b-	2g
1D	1A	1F#	1d	1dd	2a
.	.	.	.	.	2a
=35	=35	=35	=35	=35	=35
1GG	0G	1G	2d	1dd	1b-
.	.	.	2.G	.	.
2r	.	[1d	.	[1b-	1g
.	.	.	4A	.	.
[2G	.	.	4B-	.	.
.	.	.	4c	.	.
=36	=36	=36	=36	=36	=36
2G]	0r	2d]	2.d	2b-]	0r
2G	.	2B-	.	2b-	.
.	.	.	4d	.	.
2G	.	2G	2d	2b-	.
2F#	.	2G	2d	2a	.
=37	=37	=37	=37	=37	=37
1G	1r	1B	1d	1g	1r
1C	2r	2c	2e	2g	2r
.	[2c	[2C	[2e	[2g	[2cc
=38	=38	=38	=38	=38	=38
0r	2c]	2C]	2e]	2g]	2cc]
.	2c	2C	2e	2g	2cc
.	2c	2C	2e	2g	2cc
.	2B	2G	2d	2g	2dd
=39	=39	=39	=39	=39	=39
0r	1.c	1C	1e	1g	1.cc
.	.	1F	1f	1a	.
.	2A	.	.	.	2cc
=40	=40	=40	=40	=40	=40
1r	2B-	1G	1d	1g	1b-
.	2G	.	.	.	.
2r	2r	1D	2d	2f	2a
[2D	[2A	.	[2d	[2a	[2f
=41	=41	=41	=41	=41	=41
2D]	2A]	0r	2d]	2a]	2f]
2D	2A	.	2d	2f	2a
2D	2A	.	2f	2d	2a
2C#	2A	.	2e	2e	2a
=42	=42	=42	=42	=42	=42
1D	1A	0r	1d	1f#	1a
2GG	2G	.	2d	2g	2b
2GG	2G	.	2d	2g	2b
=43	=43	=43	=43	=43	=43
1C	1G	2r	1e	1g	0cc
.	.	2G	.	.	.
2r	1r	2A	1e	1r	.
2C	.	2c	.	.	.
=44	=44	=44	=44	=44	=44
2D	1r	4B-	2f	2r	0r
.	.	8A	.	.	.
.	.	8G	.	.	.
2F	.	2A	2f	2c	.
2BB-	2r	2.B-	1f	2d	.
2D	2F	.	.	2f	.
.	.	8A	.	.	.
.	.	8B-	.	.	.
=45	=45	=45	=45	=45	=45
2C	2G	2c	2r	2e	0r
4BB-	2B-	2F	1f	4d	.
4C	.	.	.	4e	.
4D	2.A	1F	.	4f	.
4E	.	.	.	4g	.
4F	.	.	2f	[2a	.
4G	4B-	.	.	.	.
=46	=46	=46	=46	=46	=46
2A	2c	0r	4f	4a]	2r
.	.	.	4e	4g	.
2B-	1d	.	4d	1f	2f
.	.	.	4c	.	.
1G	.	.	1B-	.	2g
.	2B-	.	.	2e	2b-
=47	=47	=47	=47	=47	=47
1F	1c	1r	2r	0f	1.a
.	.	.	2c	.	.
1r	1r	2r	2d	.	.
.	.	2F	2f	.	2a
=48	=48	=48	=48	=48	=48
0r	0r	2G	2e-	2r	2g
.	.	2B-	2d	2f	4f
.	.	.	.	.	4g
.	.	1A	1c	2f	4a
.	.	.	.	.	4b-
.	.	.	.	2e	[2cc
=49	=49	=49	=49	=49	=49
0r	0r	2G	2.d	2g	4cc]
.	.	.	.	.	4b-
.	.	2G	.	4d	1b-
.	.	.	8c	4d	.
.	.	.	8B-	.	.
.	.	1F	1c	1f	.
.	.	.	.	.	2a
=50	=50	=50	=50	=50	=50
0BB-	2r	1F	0d	1f	1b-
.	2D	.	.	.	.
.	4F	2r	.	1r	1dd
.	4E	.	.	.	.
.	4F	2D	.	.	.
.	4G	.	.	.	.
=51	=51	=51	=51	=51	=51
1AA	1A	4E	2r	1r	1cc
.	.	4D	.	.	.
.	.	4E	2A	.	.
.	.	4F#	.	.	.
1GG	2D	1G	4d	1dd	1b-
.	.	.	4c	.	.
.	2D	.	4d	.	.
.	.	.	4e	.	.
=52	=52	=52	=52	=52	=52
1AA	1A	1C	2f	1cc	2.a
.	.	.	2e	.	.
.	.	.	.	.	4g
2.BB-	1D	2r	1d	1b-	4f
.	.	.	.	.	4e
.	.	2F	.	.	[2d
4C	.	.	.	.	.
=53	=53	=53	=53	=53	=53
2.D	2r	2.F	2.f	2.a	2d]
.	1D	.	.	.	2.dd
4E	.	4G	4e	4g	.
2F	.	2A	2.d	4f	.
.	.	.	.	4e	4cc
2G	[2d	2B-	.	[2d	[2b-
.	.	.	4c	.	.
=54	=54	=54	=54	=54	=54
1GG	4d]	1d	4B-	2d]	4b-]
.	4c	.	4c	.	4a
.	2B-	.	4d	2.dd	1g
.	.	.	4e-	.	.
1D	1A	1D	1d	.	.
.	.	.	.	4cc	.
.	.	.	.	2a	2f#
=55	=55	=55	=55	=55	=55
1GG	1G	1D	1d	1b	1g
1r	1r	1r	1r	1r	1r
=56	=56	=56	=56	=56	=56
0r	1F	0r	1f	1cc	1a
.	2F	.	2f	2cc	2a
.	2F	.	2f	2cc	2a
=57	=57	=57	=57	=57	=57
0r	1G	0r	1d	1b-	1g
.	1A	.	1c#	1a	1e
=58	=58	=58	=58	=58	=58
2r	1D	2r	2d	2a	1f
2BB-	.	2d	2d	2b-	.
2BB-	2r	2d	2f	2b-	1r
2BB-	2D	2d	2f	2b-	.
=59	=59	=59	=59	=59	=59
1C	2E	1c	1e	1g	0r
.	2G	.	.	.	.
1D	2G	1A	1d	1dd	.
.	2F#	.	.	.	.
=60	=60	=60	=60	=60	=60
0GG	0G	2.B-	2d	2dd	2r
.	.	.	1B-	1b-	1dd
.	.	4c	.	.	.
.	.	1d	.	.	.
.	.	.	2B-	2b-	2dd
=61	=61	=61	=61	=61	=61
0r	0r	0r	2.f	2.a	2.cc
.	.	.	4B-	4b-	4dd
.	.	.	2f	2a	2cc
.	.	.	2g	2g	2b-
=62	=62	=62	=62	=62	=62
0D	0A	1r	1d	1f#	1a
.	.	1d	1f#	1dd	1a
=63	=63	=63	=63	=63	=63
1GG	1G	1d	1g	1dd	1b
1C	1G	1c	1e-	1g	1cc
=64	=64	=64	=64	=64	=64
0GG	2.G	2B-	0d	2.b-	2.dd
.	.	2.G	.	.	.
.	4A	.	.	4cc	4cc
.	4B-	.	.	4dd	4b-
.	4c	4A	.	4cc	4a
.	2d	[2B-	.	4b-	4g
.	.	.	.	4a	4f#
=65	=65	=65	=65	=65	=65
0GG	1G	4B-]	0d	1b-	1g
.	.	4A	.	.	.
.	.	4G	.	.	.
.	.	4F#	.	.	.
.	1D	1G	.	1b-	1g
=66	=66	=66	=66	=66	=66
[0D	[0D	[0A	[0d	[0a	[0f#
=67	=67	=67	=67	=67	=67
0D]	0D]	0A]	0d]	0a]	0f#]
*	*	*	*	*-	*-
!! Crucifixus
*Ibass	*Itenor	*Itenor	*Icalto
!Bassus	!Tenor 2	!Tenor 1	!Altus
*clefF4	*clefGv2	*clefGv2	*clefG2
*k[b-]	*k[b-]	*k[b-]	*k[b-]
*G:dor	*G:dor	*G:dor	*G:dor
*M4/2	*M4/2	*M4/2	*M4/2
=68	=68	=68	=68
0D	0F#	0A	0d
=69	=69	=69	=69
1GG	1.G	1B-	1d
1BB-	.	1B-	1d
.	[2F	.	.
=70	=70	=70	=70
1C	2F]	1G	1c
.	2E	.	.
4GG	2G	[1d	2B-
4AA	.	.	.
4BB-	2G	.	2B-
4C	.	.	.
=71	=71	=71	=71
4D	4F	2d]	2.A
4E	4G	.	.
1F	4A	2c	.
.	4B-	.	4G
.	2c	[1A	2F
2D	2d	.	[2f
=72	=72	=72	=72
2F	2c	2A]	4f]
.	.	.	4e-
2G	1B-	2B-	1d
1E-	.	1G	.
.	4A	.	2c
.	4G	.	.
=73	=73	=73	=73
0D	2A	2.F	2d
.	2A	.	2d
.	.	4G	.
.	2.d	1A	2.f
.	4c	.	4e
=74	=74	=74	=74
0r	2B-	2r	2d
.	2A	2A	2c#
.	2.G	2.B-	1d
.	4A	4A	.
=75	=75	=75	=75
2r	2B-	2G	1d
2D	2A	2F#	.
2.E-	2r	2.G	1B-
.	2G	.	.
4D	.	4F	.
=76	=76	=76	=76
2C	2e-	4G	2c
.	.	4A	.
2BB-	2d	2B-	2d
1C	2.c	4A	2e-
.	.	4G	.
.	.	[2G	2e-
.	4B-	.	.
=77	=77	=77	=77
1D	2A	2G]	1d
.	2A	2F#	.
[1G	[1B	1r	1d
=78	=78	=78	=78
1G]	1B]	0G	1d
1C	1c	.	1e
=79	=79	=79	=79
1F	1c	1A	1.f
1BB-	1d	1B-	.
.	.	.	2d
=80	=80	=80	=80
1C	1c	2A	1e-
.	.	1G	.
1D	1A	.	1d
.	.	2F#	.
=81	=81	=81	=81
0GG	0B	1G	1d
.	.	2r	2r
.	.	2G	2g
=82	=82	=82	=82
0r	0r	2A	2f
.	.	2c	2e-
.	.	2.B-	2.d
.	.	4A	4c
=83	=83	=83	=83
1r	1r	2G	2B-
.	.	2F#	2A
2r	2r	4G	1B-
.	.	4A	.
2G	2G	4B-	.
.	.	8A	.
.	.	8B-	.
=84	=84	=84	=84
2F	2A	2A	1c
2E-	2c	1G	.
2.D	2B-	.	2.d
.	2A	2F	.
4C	.	.	4e
=85	=85	=85	=85
2BB-	2d	2B-	[0f
2AA	1c	2c	.
1BB-	.	1d	.
.	[2B-	.	.
=86	=86	=86	=86
1F	2B-]	1c	0f]
.	2A	.	.
2BB-	2B-	1d	.
2B-	2d	.	.
=87	=87	=87	=87
2A	2c	0r	2r
2G	2B-	.	2g
2.A	2.c	.	2f
.	.	.	2e
4G	4B-	.	.
=88	=88	=88	=88
2F	2A	0r	4f
.	.	.	4e-
2.G	2.B-	.	4d
.	.	.	4c
.	.	.	4B-
4F	4A	.	4c
2D	2F	.	[2d
=89	=89	=89	=89
1E-	1G	1r	2d]
.	.	.	2c
1D	1A	2r	2d
.	.	2d	2f
=90	=90	=90	=90
2r	2r	2c	2e-
2G	2B-	2B-	4d
.	.	.	4e
2F	2A	2.c	4f
.	.	.	8e
.	.	.	8f
2E	2G	.	2g
.	.	4B-	.
=91	=91	=91	=91
4F	2c	2A	2.f
4E-	.	.	.
4D	2.d	2.B-	.
4C	.	.	4e-
4BB-	.	.	2d
4C	4c	4A	.
2D	4A	2F	[2f
.	4B	.	.
=92	=92	=92	=92
1C	1c	1G	2f]
.	.	.	2e
1F	2c	2A	[1f
.	[2A	[2F	.
=93	=93	=93	=93
0r	4A]	4F]	0f]
.	4B-	4G	.
.	2c	2A	.
.	2d	2B-	.
.	2A	2c	.
=94	=94	=94	=94
2r	2.B-	2.d	2r
2.BB-	.	.	2.d
.	4c	4c	.
.	1d	[1B-	.
4C	.	.	4e-
2D	.	.	2f
=95	=95	=95	=95
2E-	1c	2B-]	2g
2F	.	2A	2f
4G	4B-	1B-	2.d
4A	4c	.	.
[2B-	4d	.	.
.	4B-	.	4e
=96	=96	=96	=96
4B-]	1c	1F	1f
8A	.	.	.
8G	.	.	.
2A	.	.	.
2B-	[1B-	2r	2d
2BB-	.	2d	2f
=97	=97	=97	=97
2BB-	1B-]	2d	2f
2BB-	.	2d	2f
2C	2r	2c	2e
2D	2d	2A	2f#
=98	=98	=98	=98
2GG	2d	1B-	1g
1G	2d	.	.
.	2c	1A	1r
2F#	2A	.	.
=99	=99	=99	=99
1G	4B-	2G	2r
.	4c	.	.
.	4d	2G	2B-
.	4e-	.	.
1r	2.d	2G	2B-
.	.	2G	2B-
.	8c	.	.
.	8B-	.	.
=100	=100	=100	=100
0r	2A	2F	2c
.	1B-	2D	2d
.	.	1E-	2G
.	4A	.	[2g
.	4G	.	.
=101	=101	=101	=101
1r	1A	1D	2g]
.	.	.	2f#
2r	1G	2G	2.g
2G	.	2B-	.
.	.	.	8f
.	.	.	8e-
=102	=102	=102	=102
2G	0r	2B-	1d
2G	.	2B-	.
2F	.	2c	1r
2D	.	2d	.
=103	=103	=103	=103
0E-	2r	0G	2r
.	2B-	.	2g
.	2B-	.	2g
.	2c	.	2g
=104	=104	=104	=104
1D	2d	2A	2f
.	2d	2B	2d
1C	2G	2.c	1e-
.	[2c	.	.
.	.	4B-	.
=105	=105	=105	=105
0D	2c]	2A	0d
.	2B-	1G	.
.	1A	.	.
.	.	2F#	.
=106	=106	=106	=106
[0GG	[0B	[0G	[0d
=107	=107	=107	=107
0GG]	0B]	0G]	0d]
!! Et iterum
*Itenor	*Icalto	*Icant	*Icant
!Tenor	!Altus	!Cantus 2	!Cantus 1
*clefGv2	*clefG2	*clefG2	*clefG2
*k[b-]	*k[b-]	*k[b-]	*k[b-]
*G:dor	*G:dor	*G:dor	*G:dor
*M4/2	*M4/2	*M4/2	*M4/2
=108	=108	=108	=108
0r	0r	1g	1r
.	.	2.b-	1g
.	.	4cc	.
=109	=109	=109	=109
0r	1G	1.dd	2.b-
.	.	.	4cc
.	2.B-	.	[1dd
.	.	2b-	.
.	4c	.	.
=110	=110	=110	=110
0r	2d	2a	2dd]
.	2d	2dd	2b-
.	2f	2.cc	2a
.	2c	.	2g
.	.	4b-	.
=111	=111	=111	=111
1D	2d	2a	2f#
.	2d	2f#	2a
2.G	2.d	2.g	2.b
4G	4d	4g	4b
=112	=112	=112	=112
2C	2e	2g	2cc
1F	1f	1a	1cc
2A	2c	2f	2a
=113	=113	=113	=113
1G	1d	1g	1b-
2F	1f	1cc	4a
.	.	.	4g
2F	.	.	4f
.	.	.	4e
=114	=114	=114	=114
4G	1B-	0r	1d
4A	.	.	.
4B-	.	.	.
4G	.	.	.
2A	2c	.	1r
[2c	2e-	.	.
=115	=115	=115	=115
2c]	2.d	0r	1r
1B-	.	.	.
.	8c	.	.
.	8B-	.	.
.	2c	.	2r
2A	2c	.	2c
=116	=116	=116	=116
1B-	2B-	2r	4d
.	.	.	4e
.	2d	2f	4f
.	.	.	4d
2r	2c	4g	2e
.	.	4a	.
2E-	2B-	4b-	[2g
.	.	4g	.
=117	=117	=117	=117
2F	1A	2a	2g]
2F	.	1cc	2.f
2G	1B-	.	.
.	.	.	4e
2G	.	[2b-	4e
.	.	.	8d
.	.	.	8e
=118	=118	=118	=118
1F	2c	2b-]	2f
.	2.f	2a	2c
[1B-	.	2b-	2.d
.	4e-	.	.
.	4d	[2dd	.
.	4c	.	4e
=119	=119	=119	=119
2B-]	2B-	2dd]	1f
2A	2c	2cc	.
1G	1d	1b-	1r
=120	=120	=120	=120
2F	2d	2a	0r
2G	2d	2b-	.
2G	2G	2b-	.
2F	[2d	2a	.
=121	=121	=121	=121
1E	2d]	1g	1r
.	2c#	.	.
2D	1d	2f	2r
[2B-	.	2f	[2dd
=122	=122	=122	=122
2B-]	0r	2g	2dd]
2F	.	2.a	2cc
1G	.	.	1b-
.	.	4g	.
.	.	2g	.
=123	=123	=123	=123
2D	1d	2f	2a
2G	.	2g	2b-
2B-	2d	2f	2b-
2F	2c	2f	[2a
=124	=124	=124	=124
1G	2.B-	1d	4a]
.	.	.	4g
.	.	.	1g
.	8A	.	.
.	8G	.	.
1D	1A	[1d	.
.	.	.	2f#
=125	=125	=125	=125
2r	2G	2d]	2g
1G	1d	1b-	1g
2c	2e	2cc	2g
=126	=126	=126	=126
2.B-	2.f	2.dd	2.b-
4B-	4f	4dd	4b-
2A	2f	2cc	2cc
[2B-	[2f	[2b-	[2dd
=127	=127	=127	=127
2B-]	2f]	2b-]	2dd]
2F	2f	2a	2cc
2.G	2.d	2.g	2.b-
4G	4d	4g	4b-
=128	=128	=128	=128
2D	2d	2f#	2a
1G	1d	1g	1b-
2F#	2d	2a	2a
=129	=129	=129	=129
2G	2d	2b-	2g
2B-	2d	1dd	2g
1A	1e	.	1a
.	.	2cc#	.
=130	=130	=130	=130
1D	1f	2dd	1a
.	.	2a	.
1r	2d	2b	2f
.	2e	[2cc	2g
=131	=131	=131	=131
0r	2f	2cc]	2a
.	2d	2dd	2b-
.	2f	2cc	2a
.	2g	2b-	2g
=132	=132	=132	=132
0r	2d	2a	2f
.	2G	1g	1b-
.	1d	.	.
.	.	2f#	[2a
=133	=133	=133	=133
0r	1e-	1g	2a]
.	.	.	2.g
.	1d	1a	.
.	.	.	4f#
.	.	.	2f#
=134	=134	=134	=134
2r	1G	1g	2g
1G	.	.	1b-
.	1r	2r	.
2A	.	[2f	2cc
=135	=135	=135	=135
1B-	0r	2f]	1dd
.	.	2g	.
2A	.	1a	2cc
2F	.	.	2cc
=136	=136	=136	=136
2.G	1r	2g	2.b-
.	.	2g	.
4G	.	.	4b-
1D	2r	2.f	1a
.	[2d	.	.
.	.	4f	.
=137	=137	=137	=137
1A	2d]	1e	2r
.	2c	.	2.a
2D	[1f	1a	.
.	.	.	4g
[2d	.	.	4f
.	.	.	4e
=138	=138	=138	=138
2d]	2f]	1a	2d
2c	2e	.	2e
2.B-	2.d	2b-	1f
.	.	2b-	.
4A	4c	.	.
=139	=139	=139	=139
1G	2d	2.b-	2g
.	2e	.	1b-
.	.	4cc	.
1F	1f	2dd	.
.	.	2cc	2a
=140	=140	=140	=140
1F	2r	2r	2r
.	2c	2f	2a
2D	2d	2.f	2a
2d	2f	.	2a
.	.	4e	.
=141	=141	=141	=141
2d	2f	2d	1a
2c	2e	2e	.
2.B-	[1d	1f	1b-
4A	.	.	.
=142	=142	=142	=142
1G	2d]	2g	2.b-
.	2e	1b-	.
.	.	.	4cc
1F	1f	.	2dd
.	.	2a	2cc
=143	=143	=143	=143
2r	2r	2r	2r
1F	1f	1cc	1a
2G	2d	2b-	4g
.	.	.	4f
=144	=144	=144	=144
2A	2c#	2a	2e
2B-	2.d	2g	2d
1A	.	2.a	2e
.	4c#	.	.
.	2c#	.	2e
.	.	4g	.
=145	=145	=145	=145
2.d	0d	4f	2d
.	.	4e	.
.	.	2d	2.dd
4c	.	.	.
4B-	.	2.dd	.
4A	.	.	4cc
[2G	.	.	4b-
.	.	4cc	4a
=146	=146	=146	=146
2G]	2r	2b-	2g
2F#	2.d	2a	2a
2.G	.	2g	[1b-
.	4c	.	.
.	4B-	[2d	.
4A	4A	.	.
=147	=147	=147	=147
2B-	2G	2d]	2b-]
2F	2A	2.dd	2a
[1G	2.B-	.	2.dd
.	.	4cc	.
.	.	4b-	.
.	4c	4a	4cc
=148	=148	=148	=148
2G]	0d	2g	2b-
2F#	.	2a	2a
1G	.	1b-	1g
=149	=149	=149	=149
[0D	[0d	[0a	[0f#
=150	=150	=150	=150
0D]	0d]	0a]	0f#]
*-	*-	*-	*-
!! Et unam sanctam
**kern	**kern	**kern	**kern	**kern	**kern
*Ibass	*Itenor	*Itenor	*Icalto	*Icant	*Icant
!Bassus	!Tenor 2	!Tenor 1	!Altus	!Cantus 2	!Cantus 1
*clefF4	*clefGv2	*clefGv2	*clefG2	*clefG2	*clefG2
*k[b-]	*k[b-]	*k[b-]	*k[b-]	*k[b-]	*k[b-]
*G:dor	*G:dor	*G:dor	*G:dor	*G:dor	*G:dor
*M4/2	*M4/2	*M4/2	*M4/2	*M4/2	*M4/2
=151	=151	=151	=151	=151	=151
1D	1r	1A	1d	1f#	1a
2D	1D	2A	2d	2f#	2a
2D	.	2A	2d	2f#	2a
=152	=152	=152	=152	=152	=152
0GG	2D	2.G	0d	0g	2.b-
.	2D	.	.	.	.
.	.	4A	.	.	4cc
.	1G	1B-	.	.	2dd
.	.	.	.	.	[2d
=153	=153	=153	=153	=153	=153
1D	2F	1A	2.f	2.a	2d]
.	2D	.	.	.	2a
.	.	.	4e	4g	.
1r	2D	1r	2d	2f	[1a
.	2A	.	2c#	2e	.
=154	=154	=154	=154	=154	=154
2r	2D	2r	1d	1d	2a]
2D	2d	2A	.	.	2a
2GG	2.d	2.B-	1r	1r	1g
2GG	.	.	.	.	.
.	4c	4A	.	.	.
=155	=155	=155	=155	=155	=155
2GG	2B-	2G	2r	2r	1dd
2D	2A	2F#	1d	2a	.
1GG	2G	2G	.	2.b-	2.dd
.	[2B-	2d	[2G	.	.
.	.	.	.	4a	4cc
=156	=156	=156	=156	=156	=156
2r	2B-]	2.d	2G]	2g	2b-
2D	2.d	.	2A	2f#	2a
.	.	4c	.	.	.
[1G	.	2B-	2.B-	1g	2g
.	4c	.	.	.	.
.	4B-	2G	.	.	2b-
.	4A	.	4c	.	.
=157	=157	=157	=157	=157	=157
2G]	2B-	1G	2d	1g	4b-
.	.	.	.	.	4a
2C	2c	.	2e-	.	1g
1D	1A	1r	2.d	2.dd	.
.	.	.	.	.	2f#
.	.	.	4d	4dd	.
=158	=158	=158	=158	=158	=158
2r	1G	1r	2d	2b-	1g
2B-	.	.	2d	2dd	.
2.A	1r	2r	2.e	2.cc	1r
.	.	2c	.	.	.
4G	.	.	4e	4b-	.
=159	=159	=159	=159	=159	=159
2F	0r	2.d	2f	2a	0r
1G	.	.	2d	1b-	.
.	.	4c	.	.	.
.	.	2B-	2e	.	.
2F	.	2c	[2f	2a	.
=160	=160	=160	=160	=160	=160
1D	0r	2d	4f]	1f	0r
.	.	.	4e-	.	.
.	.	2B-	1d	.	.
1E-	.	2B-	.	1g	.
.	.	4A	2c	.	.
.	.	4G	.	.	.
=161	=161	=161	=161	=161	=161
0D	2r	1A	2d	2.f	2r
.	1d	.	1f	.	1dd
.	.	.	.	4e	.
.	.	1d	.	4d	.
.	.	.	.	4e	.
.	2B-	.	2d	4f	2dd
.	.	.	.	4g	.
=162	=162	=162	=162	=162	=162
0r	2.A	1r	2e	1a	2.cc
.	.	.	2e	.	.
.	4G	.	.	.	4b-
.	2F	[1d	2f	2r	2a
.	2G	.	2d	2g	2b-
=163	=163	=163	=163	=163	=163
0r	2.D	2d]	1.f	2a	2a
.	.	2d	.	1a	4f
.	4E	.	.	.	4g
.	4F	2.c	.	.	4a
.	4G	.	.	.	4b-
.	4A	.	4e	2a	[2cc
.	4B-	4B-	4d	.	.
=164	=164	=164	=164	=164	=164
0r	2c	2A	2e	2a	2cc]
.	1d	2B-	2d	2f	1b-
.	.	2G	2e	2g	.
.	2c	2A	[2f	2f	4a
.	.	.	.	.	4g
=165	=165	=165	=165	=165	=165
0r	1d	1B-	4f]	4d	2.f
.	.	.	4e	4e	.
.	.	.	1d	4f	.
.	.	.	.	4d	4g
.	1r	1A	.	1e	1a
.	.	.	2c#	.	.
=166	=166	=166	=166	=166	=166
1.BB-	2r	2r	2d	1d	2f
.	1B-	1d	1f	.	1b-
.	.	.	.	1r	.
2BB-	2B-	2d	2f	.	2b-
=167	=167	=167	=167	=167	=167
1F	1A	1c	1f	1r	1cc
[1BB-	1B-	1d	1f	2r	2b-
.	.	.	.	[2b-	[2dd
=168	=168	=168	=168	=168	=168
1BB-]	0r	0r	2B-	2b-]	2dd]
.	.	.	2B-	2b-	2dd
1r	.	.	2.f	2.a	2.cc
.	.	.	4B-	4b-	4dd
=169	=169	=169	=169	=169	=169
0r	0r	0r	2f	2a	2cc
.	.	.	2g	2g	2b-
.	.	.	2d	2f#	2a
.	.	.	2e-	2g	[2g
=170	=170	=170	=170	=170	=170
1r	2r	0r	1d	1a	2g]
.	2d	.	.	.	2f#
2r	2.d	.	2G	2b-	1g
2G	.	.	2g	2b-	.
.	4c	.	.	.	.
=171	=171	=171	=171	=171	=171
1G	4B-	1r	1g	1b-	2r
.	4A	.	.	.	.
.	2G	.	.	.	2dd
[1D	[1A	2r	[1f	2.a	1dd
.	.	2d	.	.	.
.	.	.	.	4g	.
=172	=172	=172	=172	=172	=172
1D]	1A]	1d	2f]	4f	0a
.	.	.	.	4d	.
.	.	.	4e	1dd	.
.	.	.	4d	.	.
1r	2r	1A	1e	.	.
.	2A	.	.	2cc#	.
=173	=173	=173	=173	=173	=173
2r	4A	1D	0f	1dd	2a
.	4G	.	.	.	.
2D	4F	.	.	.	4a
.	4E	.	.	.	4g
4D	2D	2d	.	2r	4f
4C	.	.	.	.	4e
4BB-	2D	4d	.	2dd	2d
4AA	.	4c	.	.	.
=174	=174	=174	=174	=174	=174
2GG	2.G	4B-	2g	4dd	2d
.	.	4A	.	4cc	.
2GG	.	2G	2d	4b-	2.g
.	4F	.	.	4a	.
2.C	1E	2G	1e	2g	.
.	.	.	.	.	4f
.	.	[2c	.	2g	[2e
4BB-	.	.	.	.	.
=175	=175	=175	=175	=175	=175
1AA	2.A	4c]	1c	2.cc	2e]
.	.	4B-	.	.	.
.	.	1A	.	.	2.a
.	4G	.	.	4b-	.
1D	1F	.	[1d	1a	.
.	.	.	.	.	4g
.	.	[2d	.	.	[2f
=176	=176	=176	=176	=176	=176
2.BB-	0D	4d]	1d]	0dd	4f]
.	.	4c	.	.	8e
.	.	.	.	.	8d
.	.	2B-	.	.	1g
4C	.	.	.	.	.
1D	.	1A	1d	.	.
.	.	.	.	.	2f#
=177	=177	=177	=177	=177	=177
0GG	2r	1G	0d	2b-	2g
.	2G	.	.	2g	2b-
.	1G	2r	.	1g	1b-
.	.	2d	.	.	.
=178	=178	=178	=178	=178	=178
2r	1D	2.d	2r	2.f	4a
.	.	.	.	.	4g
2D	.	.	2d	.	4f
.	.	8c	.	4g	4e
.	.	8B-	.	.	.
1D	2r	1A	4f	2a	1d
.	.	.	4e	.	.
.	2d	.	4d	2f	.
.	.	.	4c	.	.
=179	=179	=179	=179	=179	=179
2GG	4d	1G	2B-	2g	2dd
.	4c	.	.	.	.
2G	4B-	.	2G	1d	4dd
.	4A	.	.	.	4cc
4G	2G	1r	2g	.	4b-
4F	.	.	.	.	4a
4E	2G	.	4g	[2e	2g
4D	.	.	4f	.	.
=180	=180	=180	=180	=180	=180
2C	2.c	1r	4e	2e]	2g
.	.	.	4d	.	.
2C	.	.	2c	2e	2.cc
.	4B-	.	.	.	.
2.F	[1A	2r	2c	1f	.
.	.	.	.	.	4b-
.	.	2A	[2f	.	[2a
4E	.	.	.	.	.
=181	=181	=181	=181	=181	=181
2D	1A]	4A	2f]	2a	2a]
.	.	4G	.	.	.
2D	.	4F	2f	4a	2d
.	.	4E	.	4g	.
4D	2d	2D	1f	4f	2a
4C	.	.	.	4e	.
4BB-	4d	2D	.	2d	2dd
4AA	4c	.	.	.	.
=182	=182	=182	=182	=182	=182
2GG	4B-	2.G	2g	2d	4dd
.	4A	.	.	.	4cc
2GG	2G	.	2d	2.g	4b-
.	.	4F	.	.	4a
2.C	2G	1E	2.e	.	2g
.	.	.	.	4f	.
.	[2c	.	.	[2e	2g
4BB-	.	.	4d	.	.
=183	=183	=183	=183	=183	=183
1AA	4c]	2.A	1c	2e]	2.cc
.	4B-	.	.	.	.
.	1A	.	.	2.a	.
.	.	4G	.	.	4b-
1D	.	2.F	[1d	.	1a
.	.	.	.	4g	.
.	[2d	.	.	[2f	.
.	.	4E	.	.	.
=184	=184	=184	=184	=184	=184
2.BB-	4d]	0D	0d]	4f]	0dd
.	4c	.	.	8e	.
.	.	.	.	8d	.
.	2B-	.	.	1g	.
4C	.	.	.	.	.
1D	1A	.	.	.	.
.	.	.	.	2f#	.
=185	=185	=185	=185	=185	=185
[0GG	[0G	[0D	[0d	[0g	[0b
=186	=186	=186	=186	=186	=186
0GG]	0G]	0D]	0d]	0g]	0b]
==	==	==	==	==	==
*-	*-	*-	*-	*-	*-
!!!CDT: 1525/^1526/-1594/2/2
!!!OCY: Italia
!!!AGN: Mass (Parody)
!!!AST: renaissance, vocal
!!!ASW: Motet (unidentified)
!!!PWK: Masses, Book 1
!!!RNB: Cadence finals: D
!!!YOR: Le Opere Complete, v. 1, p. 182
!!!YOO: Rome, Italy: Fratelli Scalera
!!!END: 1992//
!!!EED: John Miller
!!!YEC: Copyright 2000, John Miller
!!!YEN: United States of America
!!!YEM: Rights to all derivative electronic formats reserved.
!!!YEM: Refer to licensing agreement for further details.
!!!YEM: This file must be accompanied by the licensing agreement.
!!!YEM: A copy of the licensing agreement may be found at http://www.music-cog.ohio-state.edu/HumdrumDatabases/Palestrina/license.txt
!!!EMD: converted to Humdrum by Bret Aarden
